X:395
T:Sliabh Russell
M:6/8
L:1/8
Q:120
R:Jig (Key of Ador)
K:Ador
"Am"eAA Bcd | eaf "G"g2d | "Am"edB cBA | "Em"BAG Bcd |
"Am"eAA Bcd | eaf "G"g2d | "Am"edB cBA | "Em"BAG "Am"A2d :|:
"Am"eaa efg | agf "G"g2d | "Am"eaa efg | "D"fed "G"~g3 |
"Am"eaa efg | agf "G"g2d | "Am"edB cBA |1 "Em"BAG "Am"ABd :|2 "Em"BAG "Am"A2d|]
